src/lib/packages/icons/src/assets/filled/chat-question.svg

<svg width="24" height="24" viewBox="0 0 24 24" fill="none" xmlns="http://www.w3.org/2000/svg">
<path d="M12.001 3C7.031 3 3.00197 7.02902 3.00197 11.999C3.00197 13.339 3.30205 14.619 3.83205 15.758C4.04205 16.198 4.04211 16.708 3.89211 17.178L3.05202 19.678C2.79202 20.458 3.54204 21.208 4.32204 20.948L6.82204 20.108C7.29204 19.958 7.80196 19.958 8.24196 20.168C9.38196 20.698 10.662 20.998 12.002 20.998C16.972 20.998 21.001 16.969 21.001 11.999C21 7.02902 16.971 3 12.001 3ZM12.02 16.5C11.468 16.5 11.0149 16.052 11.0149 15.5C11.0149 14.948 11.458 14.5 12.01 14.5H12.02C12.573 14.5 13.02 14.948 13.02 15.5C13.02 16.052 12.572 16.5 12.02 16.5ZM13.345 12.551C12.789 12.92 12.713 13.108 12.71 13.115C12.597 13.417 12.3051 13.611 11.9971 13.611C11.9151 13.611 11.833 13.598 11.752 13.569C11.367 13.432 11.1581 13.023 11.2891 12.635C11.4921 12.034 12.0859 11.586 12.5149 11.302C13.1509 10.88 13.1579 10.451 13.1079 10.165C13.0299 9.72398 12.653 9.34698 12.211 9.26898C11.875 9.20898 11.5381 9.295 11.2781 9.513C11.0221 9.728 10.876 10.042 10.876 10.375C10.876 10.789 10.54 11.125 10.126 11.125C9.712 11.125 9.376 10.789 9.376 10.375C9.376 9.597 9.71799 8.86501 10.314 8.36401C10.91 7.86401 11.694 7.65502 12.471 7.79102C13.53 7.97702 14.399 8.84603 14.585 9.90503C14.769 10.957 14.329 11.897 13.345 12.551Z" fill="currentColor"/>
</svg>

<svg xmlns="http://www.w3.org/2000/svg" width="24" height="24" fill="none"><path fill="currentColor" d="M12.001 3a9 9 0 0 0-8.999 8.999c0 1.34.3 2.62.83 3.759.21.44.21.95.06 1.42l-.84 2.5c-.26.78.49 1.53 1.27 1.27l2.5-.84c.47-.15.98-.15 1.42.06 1.14.53 2.42.83 3.76.83A8.999 8.999 0 1 0 12.001 3Zm.019 13.5a1.005 1.005 0 0 1-1.005-1c0-.552.443-1 .995-1h.01a1 1 0 1 1 0 2Zm1.325-3.949c-.556.369-.632.557-.635.564a.767.767 0 0 1-.713.496.722.722 0 0 1-.245-.042.739.739 0 0 1-.463-.934c.203-.601.797-1.049 1.226-1.333.636-.422.643-.851.593-1.137a1.139 1.139 0 0 0-.897-.896 1.123 1.123 0 0 0-1.335 1.106.75.75 0 0 1-1.5 0c0-.778.342-1.51.938-2.011.596-.5 1.38-.709 2.157-.573a2.645 2.645 0 0 1 2.114 2.114c.184 1.052-.256 1.992-1.24 2.646Z"/></svg>
